X:1
T:[ID 1-58b]
T:[ID 1-58b]
T:Bezeichnung standardisiert: Menuett Menuet
T:Urheber unbekannt Erstbeleg: 1775 (Datum in der schriftlichen Quelle) Datum in der hier transkribierten schriftlichen Quelle: 1776 - 1791
C:Urheber unbekannt
C:Erstbeleg: 1775 (Datum in der schriftlichen Quelle)
C:Datum in der hier transkribierten schriftlichen Quelle: 1776 - 1791
L:1/8
M:3/4
K:G
V:1 treble 
V:1
 g2 d2 cd | B3 dce | d2 BGAF | G4 (3ABc | B2 d^c d2 | A2 d^c d2 | egfga^c | d6 :: d4 (3de=f | %9
 edcB c2 | e^c A2 (3efg | fed^c d2 | defdef | g2 fedc | B2 AGAF | G6 :| %16

